X: 40636
T: Toormore, The
R: slide
M: 12/8
K: Adorian
|:E2 A ABA c2 d e3|d3 d^cd B2 d g3|
E2 A ABA c2 d e2 e|d2 B A2 G A3- A3:|
|:e3 ded c3 BcB|A3 ecA G2 E E2 D|
E2 A ABA c2 d e2 e|d2 B A2 G A3- A3:|

